X:1
T:Title
%%score { 1 | 2 }
L:1/8
M:4/4
K:D
V:1 treble nm="Grand Piano"
V:2 bass 
V:1
 z4 z2[Q:1/4=110] D2 | F2 [EG]2 [FA]2 [DF]2 | [Fd][Fd] [GB]2 [FA]2 D2 | FF F2 FE D2 | %4
 [A,CE]4 [CEA]2 [A,EG]2 | [A,DF]2 [A,EG]2 [DFA]2 [A,DF]2 | [Fd][Fd] [GB]2 [FA]2 D2 | FF F2 FE D2 | %8
[M:3/4] [CE]4 D2 |[M:1/4] [FA]2 |[M:4/4] [Fd][Fd] [Fd]2 [Fd][Fd] [FA]2 | [GB]4 [FA]2 D2 | %12
 FF F2 FE D2 | [A,CE]4 [CEA]2 [A,EG]2 | [A,DF]2 [A,EG]2 [DFA]2 [A,DF]2 | [Fd][Fd] [GB]2 [FA]2 D2 | %16
 FF F2 FE D2 |[M:3/4] [CE]4 D2 |] %18
V:2
 z4 z2 [D,F,]2 | [D,A,D]2 [D,A,]2 [D,D]2 [D,A,]2 | [D,A,][D,A,] [D,D]2 [D,D]2 [D,F,]2 | %3
 [D,A,D][D,A,D] [D,A,D]2 [D,A,D][D,G,D] [D,F,]2 | A,,4 A,,2 C,2 | D,2 D,2 D,2 D,2 | %6
 [D,A,][D,A,] [D,D]2 [D,D]2 [D,F,]2 | [D,A,D][D,A,D] [D,A,D]2 [D,A,D][D,G,] [D,F,]2 | %8
[M:3/4] [A,,G,]4 [D,F,]2 |[M:1/4] [D,D]2 |[M:4/4] [D,A,][D,A,] [D,A,]2 [D,A,][D,A,] [D,D]2 | %11
 [G,D]4 [D,D]2 [D,F,]2 | [D,A,D][D,A,D] [D,A,D]2 [D,A,D][D,G,D] [D,F,]2 | A,,4 A,,2 C,2 | %14
 D,2 D,2 D,2 D,2 | [D,A,][D,A,] [D,D]2 [D,D]2 [D,F,]2 | %16
 [D,A,D][D,A,D] [D,A,D]2 [D,A,D][D,G,D] [D,F,]2 |[M:3/4] [A,,G,]4 [D,F,]2 |] %18

